X:374
T: Ma und Ziel (101a), S. 251
N: T0263
O: Luxemburg
S: Singendes Volk, Esch-Alzette 1937 posth.]
N: Clerf, von Burschen und Mdchen auf dem Jahrmarkt, 1900,
N: mitgeteilt: hhh Heinrich Godefroid (Lehrer);
N: (101b)- hhh Anton Koob, Liederheft, 1861
R: Liebeslieder]
M: 4/4
L: 1/8
K: D
DE | F2FFFAGF | F2E2z2
EF | G2G2GBAG | G2F2z2
DF | A2AAA2FD | B4z2
dB | A2AAA2GG | F
FFF | E2BBA2GE | D4z2

@@@ Tune index: 8428
